!!!COM:	Japart, Jean
!!!CDT:	~1450//-~1507//
!!!OTL:	Prestes le moy
!!!AGN:	Song; Chanson
!!!SCT:	Jap3017
!!!SCA:	Jap3017
!!!voices:	4
**kern	**kern	**kern	**kern
*staff4	*staff3	*staff2	*staff1
*Ivox	*Ivox	*Ivox	*Ivox
*I"Bassus	*I"Tenor	*I"Contra	*I"Discantus
*I'B	*I'T	*I'C	*I'D
*clefF4	*clefGv2	*clefGv2	*clefG2
*k[b-]	*k[b-]	*k[b-]	*k[b-]
*M2/1	*M2/1	*M2/1	*M2/1
*met(C|)	*met(C|)	*met(C|)	*met(C|)
=1-	=1-	=1-	=1-
1.FF	0r	0F	0r
[2BB-	.	.	.
=2	=2	=2	=2
1BB-]	0r	1G	0r
1C	.	1G	.
=3	=3	=3	=3
1D	0r	2F	0f
.	.	2G	.
1D	.	2A	.
.	.	[2d	.
=4	=4	=4	=4
1E-i	0r	2d]	1g
.	.	4c	.
.	.	4B-	.
1E-i	.	1c	1g
=5	=5	=5	=5
1D	0F	1d	0f
1F	.	2c	.
.	.	[2f	.
=6	=6	=6	=6
1C	1G	2f]	1r
.	.	4e	.
.	.	4d	.
1r	1G	2.e	1b-
.	.	4d	.
=7	=7	=7	=7
1A	0F	2f	1a
.	.	2e	.
2F	.	2d	2a
[2A	.	2c	[2cc
=8	=8	=8	=8
2A]	1r	1f	2cc]
4G	.	.	4b-
4F	.	.	4a
2E	1B-	1r	1g
2G	.	.	.
=9	=9	=9	=9
2D	1.A	1r	1f
2.F	.	.	.
.	.	1F	1f
4E	.	.	.
2D	2B-	.	.
=10	=10	=10	=10
1C	1c	1G	2e
.	.	.	1g
1C	1A	1E	.
.	.	.	4f
.	.	.	4e
=11	=11	=11	=11
1D	1.F	1F	1d
1AA	.	1r	1c
.	2E	.	.
=12	=12	=12	=12
1BB-	1D	1f	0r
1C	1C	2e	.
.	.	2g	.
=13	=13	=13	=13
1.D	0r	2f	0f
.	.	2.d	.
.	.	4c	.
2D	.	4B-	.
.	.	4A	.
=14	=14	=14	=14
1E	0r	2G	1g
.	.	1B-	.
1E	.	.	1g
.	.	2c	.
=15	=15	=15	=15
1F	0F	2A	0f
.	.	2.d	.
1D	.	.	.
.	.	4e	.
.	.	[2f	.
=16	=16	=16	=16
1C	1G	2f]	1r
.	.	4e	.
.	.	4d	.
1r	1G	1e	1b-
=17	=17	=17	=17
2F	0F	2f	2a
2.A	.	1c	2.cc
4G	.	.	4b-
2F	.	2d	2a
=18	=18	=18	=18
2E-i	1r	0e-	2g
2.G	.	.	2.b-
.	1B-	.	.
4F	.	.	4a
2E-	.	.	2g
=19	=19	=19	=19
2F	1A	2c	2a
1D	.	2d	1f
.	1B-	2f	.
[2E-i	.	2e-i	[2g
=20	=20	=20	=20
4E-]	0G	0c	4g]
4D	.	.	4f
4C	.	.	4e
4BB-	.	.	4d
1C	.	.	1e
=21	=21	=21	=21
1FF	0F	1r	1f
[1F	.	1f	1r
=22	=22	=22	=22
1F]	1c	2.f	1.a
.	.	4e	.
1F	2c	2c	.
.	2c	[2A	2a
=23	=23	=23	=23
1F	2c	4A]	1a
.	.	4B-	.
.	2c	2c	.
1F	2c	2A	1a
.	2c	2F	.
=24	=24	=24	=24
1F	1c	2c	1a
.	.	2F	.
1E-	2c	1G	1g
.	2c	.	.
=25	=25	=25	=25
2.D	1d	1A	2.f
4E	.	.	4g
2F	1d	1r	2a
[2G	.	.	[2b-
=26	=26	=26	=26
2G]	1d	0r	2b-]
2D	.	.	1a
2F	2d	.	.
[2B-	2d	.	[2dd
=27	=27	=27	=27
4B-]	1d	0r	4dd]
4A	.	.	4cc
4G	.	.	4b-
4F	.	.	4a
2.G	1d	.	2.b-
4F	.	.	4a
=28	=28	=28	=28
2A	1c	2e	2cc
1F	.	1f	1a
.	1d	.	.
[2G	.	2d	[2b-
=29	=29	=29	=29
4G]	0B-	0e-	4b-]
4F	.	.	4a
4E-i	.	.	4g
4D	.	.	4f
1E-	.	.	2.g
.	.	.	4f
=30	=30	=30	=30
1F	0A	2c	1a
.	.	2.d	.
1E	.	.	1r
.	.	4c	.
.	.	[2c	.
=31	=31	=31	=31
1D	0r	2c]	1f
.	.	2Bni	.
1C	.	1c	2g
.	.	.	2g
=32	=32	=32	=32
1FF	1F	2c	2f
.	.	1f	2b-
1r	2G	.	1b-
.	2G	2e	.
=33	=33	=33	=33
1F	1F	2f	2a
.	.	1d	2a
2G	1B-	.	1g
2E	.	2e	.
=34	=34	=34	=34
1F	2A	0c	1.f
.	2A	.	.
1C	1G	.	.
.	.	.	2e
=35	=35	=35	=35
1D	1.F	1A	1d
1AA	.	2A	1c
.	2E	[2c	.
=36	=36	=36	=36
1BB-	1D	2c]	1f
.	.	2B-	.
1C	1C	1G	2e
.	.	.	2e
=37	=37	=37	=37
2D	1F	1F	1f
2.BB-	.	.	.
.	2G	1r	1b-
4AA	.	.	.
2GG	2E	.	.
=38	=38	=38	=38
2FF	1F	1f	2a
2.BB-	.	.	2.dd
.	1B-	2d	.
4AA	.	.	4cc
2BB-	.	[2f	2dd
=39	=39	=39	=39
1FF	2A	4f]	2cc
.	.	4e	.
.	2c	2c	2a
1r	2d	2f	2b-
.	[2c	2e	[2a
=40	=40	=40	=40
1F	4c]	2f	4a]
.	4B-	.	4g
.	2A	1c	1f
1C	1G	.	.
.	.	2c	2e
=41	=41	=41	=41
!LO:TX:Z=8:t=SC	!LO:TX:Z=8:t=SC	!LO:TX:Z=8:t=SC	!LO:TX:Z=8:t=SC
0FF	0F	1.A	1f
.	.	.	1r
.	.	2B-	.
=42	=42	=42	=42
1FF	1F	1c	1f
[1BB-	1F	1d	1d
=43	=43	=43	=43
1BB-]	1B-	1d	1f
1BB-	1B-	2d	1d
.	.	[2d	.
=44	=44	=44	=44
1BB-	1B-	2d]	1f
.	.	1d	.
1BB-	1B-	.	1g
.	.	2B-	.
=45	=45	=45	=45
1FF	0A	1c	1a
2FF	.	2A	1r
[2AA	.	[2c	.
=46	=46	=46	=46
2AA]	1A	2c]	1cc
2BB-	.	2d	.
1C	1A	1e	1cc
=47	=47	=47	=47
0D	1F	2f	1.a
.	.	2.d	.
.	1D	.	.
.	.	4c	.
.	.	2B-	2g
=48	=48	=48	=48
1C	1E	1c	2e
.	.	.	1g
[1BB-	1F	1d	.
.	.	.	4f
.	.	.	4e
=49	=49	=49	=49
1BB-]	1G	0r	1d
1C	1r	.	1c
=50	=50	=50	=50
1FF	1F	1f	2r
.	.	.	1f
[1BB-	1F	1d	.
.	.	.	[2d
=51	=51	=51	=51
1BB-]	1B-	1f	2d]
.	.	.	1f
1BB-	1B-	1d	.
.	.	.	[2b-
=52	=52	=52	=52
2BB-	1B-	1f	4b-]
.	.	.	4a
1BB-	.	.	4g
.	.	.	4f
.	1B-	1d	1g
2BB-	.	.	.
=53	=53	=53	=53
0FF	0A	2c	1a
.	.	2d	.
.	.	2e	2r
.	.	[2c	2cc
=54	=54	=54	=54
1F	1A	2c]	1cc
.	.	1f	.
1G	1G	.	1b-
.	.	2e	.
=55	=55	=55	=55
0D	1F	2f	2a
.	.	1d	2.a
.	1F	.	.
.	.	.	4g
.	.	2B-	[2f
=56	=56	=56	=56
0C	1G	0c	2f]
.	.	.	4e
.	.	.	4d
.	1G	.	1e
=57	=57	=57	=57
2r	0F	1A	1f
1A	.	.	.
.	.	1F	1cc
[2F	.	.	.
=58	=58	=58	=58
2F]	0r	2r	1cc
2A	.	2c	.
1G	.	2d	1b-
.	.	2e	.
=59	=59	=59	=59
1F	1c	1f	1a
1C	1c	[1e-	[1g
=60	=60	=60	=60
1E-i	1B-	2e-]	2g]
.	.	2d	2f
1F	1A	2c	[1f
.	.	[2A	.
=61	=61	=61	=61
1D	1F	2A]	1f]
.	.	2B-	.
1C	1G	1G	1e
=62	=62	=62	=62
2r	0A	0F	1f
2.F	.	.	.
.	.	.	2r
4G	.	.	.
2A	.	.	[2cc
=63	=63	=63	=63
2F	1c	1r	2cc]
2.A	.	.	2.cc
.	1c	1A	.
4G	.	.	4b-
4F	.	.	4a
4E	.	.	4g
=64	=64	=64	=64
2.G	1B-	1.d	2.b-
4F	.	.	4a
4D	1A	.	4f
4E	.	.	4g
[2F	.	[2c	[2a
=65	=65	=65	=65
4F]	1F	2c]	4a]
4E	.	.	4g
2F	.	2A	1f
1C	1G	1G	.
.	.	.	2e
=66	=66	=66	=66
0FF	0A	1F	1f
.	.	1r	1r
=67	=67	=67	=67
0r	3%4FV	3%4AV	3%4fV
.	3%2FZ	3%2AZ	3%2dZ
=68	=68	=68	=68
0BB-	3%4B-V	0d	3%4fV
.	3%2B-Z	.	3%2dZ
=69	=69	=69	=69
0BB-	3%4B-V	0d	3%2fV
.	.	.	3%2g
.	3%2B-Z	.	3%2fZ
=70	=70	=70	=70
0FF	0A	0c	1a
.	.	.	1r
=71	=71	=71	=71
0AA	3%4AV	3%4cV	3%4ccV
.	3%2AZ	[3%2AZ	3%2ccZ
=72	=72	=72	=72
0D	3%4FV	3%2A]V	3%2.aV
.	.	3%4B-Z	.
.	.	.	3g
.	3%2DZ	.	3%2fZ
=73	=73	=73	=73
0C	3%4EV	0c	3%2eV
.	.	.	3eZ
.	.	.	3%2gV
.	3%2FZ	.	.
.	.	.	3fZ
=74	=74	=74	=74
3%4BB-V	3%4GV	0r	3%4dV
3%2CZ	3%2rZ	.	3%2cZ
=75	=75	=75	=75
0D	3%4FV	3%2.dV	3%4fV
.	.	3e	.
.	3%2FZ	3%2fZ	3%2dZ
=76	=76	=76	=76
0BB-	3%4B-V	3%2.dV	3%4fV
.	.	3e	.
.	3%2B-Z	3%2fZ	3%2dZ
=77	=77	=77	=77
0BB-	3%4B-V	3%2.dV	3%2fV
.	.	.	3%2g
.	.	3c	.
.	3%2B-Z	3%2dZ	3%2fZ
=78	=78	=78	=78
0FF	0A	0c	1a
.	.	.	1r
=79	=79	=79	=79
3%4FV	3%4AV	3%2cV	3%4ccV
.	.	3%2f	.
3%2GZ	3%2B-Z	3d	3%2b-Z
.	.	3eZ	.
=80	=80	=80	=80
3%2FV	3%4cV	3%2.fV	3%2aV
3%2C	.	.	3%2.g
.	.	3%2e	.
3%2EZ	3%2B-Z	.	.
.	.	3dZ	3fZ
=81	=81	=81	=81
3%2FV	3%2AV	3%4cV	3%4fV
3%4CZ	3%4GZ	.	.
.	.	3%2cZ	3%2eZ
=82	=82	=82	=82
0FFl	0Fl	0cl	0fl
==	==	==	==
*-	*-	*-	*-
!!!RDF**kern: l=long note in original notation
!!!RDF**kern: i=editorial accidental
!!!RDF**kern: V=start of tuplet marker
!!!RDF**kern: Z=end of tuplet marker
!!!ENC:	Chris Gage 09-18-2013
!!!END:	2013/10/24/
!!!EED:	Jesse Rodin
!!!EEV:	2013/12/19/
!!!ONB:	Translated from MusicXML and edited on 2013/12/19/ by Craig Sapp
!!muse2ps: C^@{COM}^i2I150v85,85,85,100Q8c150
